source/img/htmlacademy.svg

<svg width="27" height="34" viewBox="0 0 27 34" fill="none" xmlns="http://www.w3.org/2000/svg">
<path d="M13.6426 0.101368L13.5 0.0859375L0 1.46443V25.5657L13.5 33.3892L27 25.5657V1.46443L13.6426 0.101368ZM25.2344 24.5885L13.5 31.3883L1.76561 24.5885V14.7093L13.4507 21.4834L13.4701 22.711L5.45351 18.0646L5.44295 19.2648L13.4894 23.9747L13.5088 25.2348L5.46408 20.5747L5.45351 21.7749L13.5 26.4847L21.6239 21.7509V20.5507V16.6484L25.2432 14.543L25.2344 24.5885ZM25.2344 13.2622L22.0147 15.1036L20.5325 15.9609L13.4666 11.8597L13.456 13.0599L19.4957 16.5593L19.4429 16.5901L19.3126 16.6638L18.4536 17.1456L13.4666 14.2583L13.456 15.4585L17.3921 17.7389L16.4591 18.3355L16.438 18.3475L13.4666 16.6416L13.456 17.8417L15.4029 18.9528L13.4155 20.1152L1.7973 13.3839L13.4349 6.56862L25.2344 13.2622ZM25.2344 12.062L13.4401 5.28786L1.76561 12.0552V3.01438L13.5 1.8142L25.2344 3.01438V12.062Z" fill="#192144"/>
</svg>

<svg width="27" height="34" fill="none" xmlns="http://www.w3.org/2000/svg"><path d="M13.64.1L13.5.1 0 1.46v24.1l13.5 7.83L27 25.57V1.47L13.64.1zm11.6 24.49l-11.74 6.8-11.73-6.8V14.7l11.68 6.77.02 1.23-8.02-4.65v1.2l8.04 4.71.02 1.26-8.05-4.66v1.2l8.04 4.71 8.12-4.73v-5.1l3.62-2.1v10.04zm0-11.33L22 15.1l-1.48.86-7.06-4.1-.01 1.2 6.04 3.5-.06.03-.13.07-.86.49-4.98-2.9-.01 1.2 3.93 2.29-.93.6h-.02l-2.97-1.7-.01 1.2 1.94 1.11-1.98 1.17L1.8 13.38l11.63-6.81 11.8 6.7zm0-1.2L13.43 5.3 1.77 12.06V3l11.73-1.2 11.73 1.2v9.05z" fill="#192144"/></svg>
